public/header/Mac.svg

<svg width="47" height="57" viewBox="0 0 47 57" fill="none" xmlns="http://www.w3.org/2000/svg">
<path d="M35.0906 1.38512C35.0906 4.17511 34.0918 6.77995 32.1008 9.19086C29.6982 12.0572 26.7921 13.7134 23.6407 13.4521C23.6005 13.1175 23.5772 12.7652 23.5772 12.3949C23.5772 9.71678 24.7198 6.8504 26.7489 4.50688C27.7619 3.32027 29.0503 2.33375 30.6127 1.54671C32.1717 0.771334 33.6463 0.342483 35.0332 0.269165C35.0512 0.435053 35.0646 0.600941 35.0738 0.766419C35.0854 0.973266 35.0906 1.1797 35.0906 1.38512Z" fill="url(#paint0_linear_17919_14)"/>
<path d="M45.6392 43.742C44.8124 45.6909 43.8338 47.4849 42.7 49.1342C41.1545 51.3829 39.8891 52.9391 38.9139 53.8034C37.4021 55.2221 35.7824 55.9487 34.0479 55.9901C32.8027 55.9901 31.3011 55.6284 29.5531 54.895C27.7994 54.1651 26.1877 53.8034 24.7141 53.8034C23.1686 53.8034 21.5111 54.1651 19.7381 54.895C17.9625 55.6284 16.532 56.0107 15.4384 56.0486C13.7751 56.1209 12.1172 55.3736 10.4624 53.8034C9.40616 52.8634 8.08505 51.252 6.50243 48.9689C4.80439 46.5312 3.40838 43.7041 2.31471 40.4812C1.14343 36.9998 0.556274 33.6288 0.556274 30.3651C0.556274 26.6267 1.34792 23.4023 2.93359 20.7004C4.17978 18.5299 5.83765 16.818 7.91262 15.5612C9.98758 14.3043 12.2296 13.6639 14.644 13.6229C15.9651 13.6229 17.6976 14.0399 19.8505 14.8593C21.9973 15.6816 23.3758 16.0985 23.9802 16.0985C24.432 16.0985 25.9633 15.6111 28.5593 14.6389C31.0142 13.7376 33.0862 13.3643 34.7835 13.5113C39.3829 13.89 42.8384 15.7401 45.1364 19.0735C41.0229 21.6167 38.9881 25.1788 39.0286 29.7484C39.0657 33.3079 40.3311 36.2699 42.8181 38.6216C43.9452 39.7132 45.2039 40.5568 46.6043 41.156C46.3006 42.0547 45.98 42.9156 45.6392 43.742Z" fill="url(#paint1_linear_17919_14)"/>
<defs>
<linearGradient id="paint0_linear_17919_14" x1="23.5803" y1="0.269165" x2="23.5803" y2="56.0534" gradientUnits="userSpaceOnUse">
<stop stop-color="#FBE9BA"/>
<stop offset="1" stop-color="#E7C885"/>
</linearGradient>
<linearGradient id="paint1_linear_17919_14" x1="23.5803" y1="0.269165" x2="23.5803" y2="56.0534" gradientUnits="userSpaceOnUse">
<stop stop-color="#FBE9BA"/>
<stop offset="1" stop-color="#E7C885"/>
</linearGradient>
</defs>
</svg>

<svg xmlns="http://www.w3.org/2000/svg" fill="none" >
  <symbol viewBox="0 0 47 57" id="Mac">
    <path fill="url(#a)" d="M35.09 1.385c0 2.79-.998 5.395-2.99 7.806-2.402 2.866-5.308 4.522-8.46 4.261a8.849 8.849 0 0 1-.063-1.057c0-2.678 1.143-5.545 3.172-7.888 1.013-1.187 2.301-2.173 3.864-2.96C32.172.77 33.646.342 35.033.269a11.05 11.05 0 0 1 .057 1.116Z"/>
    <path fill="url(#b)" d="M45.64 43.742a30.515 30.515 0 0 1-2.94 5.392c-1.546 2.249-2.81 3.805-3.786 4.67-1.512 1.418-3.132 2.145-4.866 2.186-1.245 0-2.747-.362-4.495-1.095-1.754-.73-3.365-1.092-4.839-1.092-1.545 0-3.203.362-4.976 1.092-1.776.733-3.206 1.116-4.3 1.154-1.663.072-3.32-.675-4.976-2.246-1.056-.94-2.377-2.551-3.96-4.834-1.698-2.438-3.094-5.265-4.187-8.488C1.143 37 .556 33.63.556 30.365c0-3.738.792-6.963 2.378-9.665 1.246-2.17 2.904-3.882 4.979-5.139a13.194 13.194 0 0 1 6.731-1.938c1.321 0 3.054.417 5.207 1.236 2.146.823 3.525 1.24 4.13 1.24.451 0 1.982-.488 4.578-1.46 2.455-.901 4.527-1.275 6.224-1.128 4.6.379 8.055 2.23 10.353 5.563-4.113 2.543-6.148 6.105-6.107 10.674.037 3.56 1.302 6.522 3.79 8.874a12.434 12.434 0 0 0 3.785 2.534c-.303.899-.624 1.76-.965 2.586Z"/>
    <defs>
      <linearGradient id="a" x1="23.58" x2="23.58" y1=".269" y2="56.053" gradientUnits="userSpaceOnUse">
        <stop stop-color="#FBE9BA"/>
        <stop offset="1" stop-color="#E7C885"/>
      </linearGradient>
      <linearGradient id="b" x1="23.58" x2="23.58" y1=".269" y2="56.053" gradientUnits="userSpaceOnUse">
        <stop stop-color="#FBE9BA"/>
        <stop offset="1" stop-color="#E7C885"/>
      </linearGradient>
    </defs>
  <symbol/>
</svg>
